<?xml version="1.0" encoding="UTF-8"?>
<map version="1.10" tiledversion="1.12.2" orientation="orthogonal" renderorder="right-down" compressionlevel="0" width="39" height="34" tilewidth="16" tileheight="16" infinite="0" nextlayerid="5" nextobjectid="1">
 <tileset firstgid="1" source="TSX files/muddy cave v1.tsx"/>
 <layer id="1" name="terrain" width="39" height="34">
  <data encoding="csv">
241,241,241,241,241,241,241,241,241,241,241,241,241,241,241,241,241,241,241,241,241,241,241,241,241,241,62,675,791,791,851,789,121,241,241,241,241,241,241,
241,241,241,241,241,241,241,241,241,241,241,241,241,241,241,241,241,241,241,241,241,241,241,241,241,62,307,795,135,135,135,791,676,63,241,241,241,241,241,
241,241,241,241,241,241,241,241,241,241,241,241,241,241,241,241,241,241,241,241,241,241,241,241,241,124,367,735,195,195,195,135,796,61,241,241,241,241,241,
241,241,241,241,241,241,241,241,241,241,241,241,241,241,241,241,241,241,241,241,241,241,241,241,241,124,308,795,135,135,135,195,736,121,241,241,241,241,241,
241,241,241,241,241,241,241,241,241,241,241,241,241,241,241,241,243,182,183,242,241,241,241,241,243,309,368,735,195,195,195,135,796,61,241,241,241,241,241,
241,241,241,241,241,241,241,241,241,241,241,241,241,241,243,183,249,307,308,246,63,241,62,183,249,369,307,795,135,135,135,195,736,121,63,241,241,241,241,
241,241,241,241,241,241,241,241,241,241,241,241,62,183,249,308,309,367,368,306,121,241,64,308,309,309,367,735,195,195,195,135,796,246,121,241,241,241,241,
241,241,241,241,62,183,63,241,241,241,241,241,124,307,309,368,369,427,428,366,121,241,124,368,369,369,307,795,135,135,135,195,736,306,366,63,241,241,241,
241,241,241,241,124,308,121,241,241,241,241,243,309,367,369,428,429,785,786,426,123,241,124,308,309,309,367,855,195,195,195,135,796,366,366,61,241,241,241,
241,241,62,182,309,368,306,242,241,243,183,249,369,427,429,361,363,362,2,123,243,183,367,368,369,369,548,915,789,789,135,195,856,306,306,121,241,241,241,
241,241,64,307,369,428,366,246,183,13,14,309,429,361,363,662,423,121,241,243,366,306,307,308,309,549,908,789,789,789,789,789,916,366,366,61,241,241,241,
241,241,64,367,429,905,426,306,307,73,74,369,370,421,422,601,543,61,62,544,365,366,367,368,369,490,788,789,849,790,2147484497,789,789,546,366,121,241,241,241,
241,241,124,427,370,906,365,366,367,133,134,429,361,603,542,544,302,123,124,304,302,426,487,488,489,789,789,789,2147484498,790,790,2147484497,789,787,546,123,241,241,241,
241,241,122,302,785,665,666,426,427,193,361,362,662,484,304,786,61,241,122,607,608,609,667,668,669,70,909,789,789,790,790,850,789,789,61,241,241,241,241,
241,241,241,122,3,725,726,784,301,361,662,423,601,544,301,3,123,241,241,124,665,670,671,668,669,3,2,2147484498,789,2147484498,790,789,789,908,123,241,241,241,241,
241,241,241,241,62,302,783,301,302,421,482,423,484,906,121,241,241,241,241,122,611,665,668,610,61,241,62,789,789,849,790,789,789,123,241,241,241,241,241,
241,241,241,241,64,784,304,361,363,603,602,601,544,304,123,241,241,241,241,241,122,2,3,729,302,182,309,789,789,790,850,789,121,241,241,241,241,241,241,
241,241,241,243,309,304,302,481,482,661,662,424,303,303,63,241,241,241,241,241,62,183,182,302,304,307,309,789,789,2147484498,789,909,789,2147483831,2147483891,241,241,241,241,
241,241,62,249,369,370,905,421,422,423,422,661,364,301,61,241,241,241,241,241,64,308,307,189,248,367,369,789,789,789,910,907,789,2147483902,2147483901,63,241,241,241,
241,241,64,309,429,786,361,662,482,483,601,543,544,304,306,182,242,241,241,243,309,368,367,70,549,308,249,490,789,789,788,789,8,2147483962,2147483961,246,63,241,241,
241,241,122,369,370,361,662,482,423,601,544,301,302,365,366,307,246,183,182,249,369,428,427,130,485,547,549,789,849,2147484497,789,6,365,2147484022,2147484021,306,121,241,241,
241,241,241,124,785,541,542,543,542,129,187,663,664,188,428,367,306,367,307,309,429,905,906,70,789,789,789,789,790,790,125,362,364,303,2147484081,366,121,241,241,
241,241,241,64,786,189,187,188,187,429,361,362,363,364,365,487,366,368,367,369,370,784,189,789,789,789,789,2147484498,790,790,789,126,484,189,248,366,123,241,241,
241,241,241,122,188,429,301,786,303,361,662,482,601,544,607,671,486,488,487,429,783,301,70,490,789,849,789,849,790,790,2147484497,306,247,249,2,123,241,241,241,
241,241,241,241,124,302,905,723,724,541,542,543,544,607,671,725,668,666,668,670,608,609,130,789,789,789,2147484498,790,790,790,485,366,307,309,63,241,241,241,241,
241,241,241,241,124,906,784,785,2147484434,301,302,302,301,727,611,725,668,725,665,725,668,669,9,789,909,789,849,790,790,850,787,546,547,549,61,241,241,241,241,
241,241,241,241,122,786,785,783,301,785,3,3,123,124,727,611,665,726,725,726,668,670,609,70,789,789,2147484498,790,789,788,789,789,789,789,121,241,241,241,241,
241,241,241,241,241,122,3,2,2,123,241,241,241,122,302,727,728,611,726,665,610,728,729,130,787,789,849,790,789,789,123,122,2,2,123,241,241,241,241,
241,241,241,241,241,241,241,241,241,241,241,241,241,241,122,2,3,727,728,728,729,3,123,122,788,907,2147484498,850,789,789,63,241,241,241,241,241,241,241,241,
241,241,241,241,241,241,241,241,241,241,241,241,241,241,241,241,241,122,2,3,123,241,241,241,64,907,789,910,907,787,61,241,241,241,241,241,241,241,241,
241,241,241,241,241,241,241,241,241,241,241,241,241,241,241,241,241,241,241,241,241,241,241,241,64,787,908,909,908,908,121,241,241,241,241,241,241,241,241,
241,241,241,241,241,241,241,241,241,241,241,241,241,241,241,241,241,241,241,241,241,241,241,241,122,788,907,787,788,3,123,241,241,241,241,241,241,241,241,
241,241,241,241,241,241,241,241,241,241,241,241,241,241,241,241,241,241,241,241,241,241,241,241,241,122,3,3,123,241,241,241,241,241,241,241,241,241,241,
241,241,241,241,241,241,241,241,241,241,241,241,241,241,241,241,241,241,241,241,241,241,241,241,241,241,241,241,241,241,241,241,241,241,241,241,241,241,241
</data>
 </layer>
 <layer id="2" name="Shadows" width="39" height="34">
  <data encoding="csv">
0,0,0,0,0,0,0,0,0,0,0,0,0,0,0,0,0,0,0,0,0,0,0,0,0,0,0,0,0,0,0,0,0,0,0,0,0,0,0,
0,0,0,0,0,0,0,0,0,0,0,0,0,0,0,0,0,0,0,0,0,0,0,0,0,0,0,0,0,0,0,0,0,0,0,0,0,0,0,
0,0,0,0,0,0,0,0,0,0,0,0,0,0,0,0,0,0,0,0,0,0,0,0,0,0,0,0,0,0,0,0,0,0,0,0,0,0,0,
0,0,0,0,0,0,0,0,0,0,0,0,0,0,0,0,0,0,0,0,0,0,0,0,0,0,0,0,0,0,0,0,0,0,0,0,0,0,0,
0,0,0,0,0,0,0,0,0,0,0,0,0,0,0,0,0,0,0,0,0,0,0,0,0,860,0,0,0,0,0,0,0,0,0,0,0,0,0,
0,0,0,0,0,0,0,0,0,0,0,0,0,0,0,0,0,0,0,0,0,0,0,0,0,860,0,0,0,0,0,0,0,2147484508,0,0,0,0,0,
0,0,0,0,0,0,0,0,0,0,0,0,0,0,0,0,0,0,0,0,0,0,0,918,918,860,0,0,0,0,0,0,0,2147484508,0,0,0,0,0,
0,0,0,0,0,0,0,0,0,0,0,0,0,0,0,0,0,0,0,2147484448,0,0,0,918,918,860,0,0,0,0,0,0,0,2147484508,2147484508,0,0,0,0,
0,0,0,0,0,918,0,0,0,0,0,0,860,0,0,0,0,0,2147484448,918,0,0,0,918,918,860,0,0,0,0,0,0,0,2147484508,2147484508,0,0,0,0,
0,0,0,0,860,920,2147484508,0,0,0,0,0,860,0,0,0,0,0,0,0,0,0,860,2147484568,860,920,0,0,0,0,0,0,0,2147484508,2147484508,0,0,0,0,
0,0,0,918,860,920,2147484508,0,0,0,0,0,920,0,0,0,0,0,0,0,860,0,860,0,920,0,0,0,0,0,0,0,0,2147484568,2147484508,0,0,0,0,
0,0,0,860,920,0,2147484568,0,0,0,0,0,0,0,0,0,0,0,0,918,860,0,920,0,0,0,0,0,0,0,0,0,0,0,2147484568,0,0,0,0,
0,0,0,920,0,0,0,0,0,0,0,0,0,0,0,0,0,0,0,918,920,0,0,0,0,0,0,0,0,0,0,0,0,0,0,0,0,0,0,
0,0,0,0,0,0,0,0,0,0,0,0,0,0,0,0,0,0,0,920,0,0,0,0,0,0,0,0,0,0,0,0,0,0,0,0,0,0,0,
0,0,0,0,0,0,0,0,0,0,0,0,0,0,0,0,0,0,0,0,0,0,0,0,0,0,0,0,0,0,0,0,0,0,0,0,0,0,0,
0,0,0,0,0,0,0,0,0,0,0,0,0,0,0,0,0,0,0,0,0,0,0,0,0,0,0,918,800,0,0,0,0,0,0,0,0,0,0,
0,0,0,0,0,0,0,0,0,0,0,0,0,0,0,0,0,0,0,0,0,0,0,0,0,0,860,918,860,0,0,0,0,0,0,0,0,0,0,
0,0,0,0,860,0,0,0,0,0,0,0,0,0,0,0,0,0,0,0,0,0,0,0,0,0,860,918,920,0,0,0,0,0,0,0,0,0,0,
0,0,0,0,860,0,0,0,0,0,0,0,0,0,0,0,0,0,0,0,0,0,0,0,0,0,860,860,0,0,0,0,0,0,0,0,0,0,0,
0,0,0,0,920,0,0,0,0,0,0,0,0,0,0,0,0,0,0,0,860,0,0,0,0,0,920,0,0,0,0,0,0,0,0,0,0,0,0,
0,0,0,0,0,0,0,0,0,0,0,0,0,0,0,0,0,0,0,0,860,0,0,0,0,0,0,0,0,0,0,0,0,0,0,0,0,0,0,
0,0,0,0,0,0,0,0,0,0,0,0,0,0,0,0,0,0,0,0,920,0,0,0,0,0,0,0,0,0,0,0,0,0,0,0,0,0,0,
0,0,0,0,0,0,0,0,0,0,0,0,0,0,0,0,0,0,0,0,0,0,0,0,0,0,0,0,0,0,0,0,0,0,0,0,0,0,0,
0,0,0,0,0,0,0,0,0,0,0,0,0,0,0,0,0,0,0,0,0,0,0,0,0,0,0,0,0,0,0,0,0,0,0,0,0,0,0,
0,0,0,0,0,0,0,0,0,0,0,0,0,0,0,0,0,0,0,0,0,0,0,0,0,0,0,0,0,0,0,0,0,0,0,0,0,0,0,
0,0,0,0,0,0,0,0,0,0,0,0,0,0,0,0,0,0,0,0,0,0,0,0,0,0,0,0,0,0,0,0,0,0,0,0,0,0,0,
0,0,0,0,0,0,0,0,0,0,0,0,0,0,0,0,0,0,0,0,0,0,0,0,0,0,0,0,0,0,0,0,0,0,0,0,0,0,0,
0,0,0,0,0,0,0,0,0,0,0,0,0,0,0,0,0,0,0,0,0,0,0,0,0,0,0,0,0,0,0,0,0,0,0,0,0,0,0,
0,0,0,0,0,0,0,0,0,0,0,0,0,0,0,0,0,0,0,0,0,0,0,0,0,0,0,0,0,0,0,0,0,0,0,0,0,0,0,
0,0,0,0,0,0,0,0,0,0,0,0,0,0,0,0,0,0,0,0,0,0,0,0,0,0,0,0,0,0,0,0,0,0,0,0,0,0,0,
0,0,0,0,0,0,0,0,0,0,0,0,0,0,0,0,0,0,0,0,0,0,0,0,0,0,0,0,0,0,0,0,0,0,0,0,0,0,0,
0,0,0,0,0,0,0,0,0,0,0,0,0,0,0,0,0,0,0,0,0,0,0,0,0,0,0,0,0,0,0,0,0,0,0,0,0,0,0,
0,0,0,0,0,0,0,0,0,0,0,0,0,0,0,0,0,0,0,0,0,0,0,0,0,0,0,0,0,0,0,0,0,0,0,0,0,0,0,
0,0,0,0,0,0,0,0,0,0,0,0,0,0,0,0,0,0,0,0,0,0,0,0,0,0,0,0,0,0,0,0,0,0,0,0,0,0,0
</data>
 </layer>
 <layer id="3" name="overlay" width="39" height="34">
  <data encoding="csv">
0,0,0,0,0,0,0,0,0,0,0,0,0,0,0,0,0,0,0,0,0,0,0,0,0,0,0,0,75,75,15,0,0,0,0,0,0,0,0,
0,0,0,0,0,0,0,0,0,0,0,0,0,0,0,0,0,0,0,0,0,0,0,0,0,0,184,0,0,0,0,75,181,0,0,0,0,0,0,
0,0,0,0,0,0,0,0,0,0,0,0,0,0,0,0,0,0,0,0,0,0,0,0,0,0,0,0,0,0,0,0,0,0,0,0,0,0,0,
0,0,0,0,0,0,0,0,0,0,0,0,0,0,0,0,0,0,0,0,0,0,0,0,0,0,0,0,0,0,0,0,0,0,0,0,0,0,0,
0,0,0,0,0,0,0,0,0,0,0,0,0,0,0,0,0,0,0,0,0,0,0,0,0,184,0,0,0,0,0,0,0,0,0,0,0,0,0,
0,0,0,0,0,0,0,0,0,0,0,0,0,0,0,0,0,244,244,0,0,0,0,0,0,250,0,0,0,0,0,0,0,181,0,0,0,0,0,
0,0,0,0,0,0,0,0,0,0,0,0,0,0,0,244,244,244,244,244,0,0,0,372,191,310,0,0,0,0,0,0,0,245,0,0,0,0,0,
0,0,0,0,0,0,0,0,0,0,0,0,0,244,244,244,244,0,244,244,0,0,0,0,71,250,244,244,0,0,0,0,0,305,181,0,0,0,0,
0,0,0,0,0,311,0,0,0,0,0,0,184,244,244,244,244,244,244,1,0,0,0,0,131,310,244,255,375,495,0,0,244,245,245,0,0,0,0,
0,0,0,0,184,244,181,0,0,0,0,0,250,244,244,244,244,1,244,244,0,0,184,0,305,250,848,315,435,555,375,375,2147483903,305,305,0,0,0,0,
0,0,0,371,250,845,245,0,0,0,0,244,310,244,244,244,244,244,244,244,312,244,250,244,305,310,244,3221226384,672,315,435,435,2147483963,245,245,0,0,0,0,
0,0,0,244,310,846,305,244,244,0,0,244,244,244,244,244,244,244,244,72,0,244,310,244,244,244,244,672,672,2147484560,672,672,1073742736,0,245,0,0,0,0,
0,0,0,244,0,244,606,244,244,0,0,244,244,0,244,244,1,0,0,132,244,244,244,244,244,10,2147484500,672,912,0,0,672,672,244,1,0,0,0,0,
0,0,0,4,244,0,0,244,244,0,0,244,0,244,244,244,0,0,0,4,244,244,244,244,244,0,244,0,0,0,0,2147484560,672,848,0,0,0,0,0,
0,0,0,0,0,4,244,244,244,244,0,244,0,846,1,0,0,0,0,0,244,244,244,244,1,0,0,4,0,0,0,0,244,1,0,0,0,0,0,
0,0,0,0,0,184,244,244,244,244,244,244,244,244,0,0,0,0,0,0,4,244,244,244,0,0,0,184,244,0,0,244,1,0,0,0,0,0,0,
0,0,0,0,0,250,244,244,244,0,244,244,244,1,0,0,0,0,0,0,0,0,0,4,181,0,184,250,0,0,0,244,0,0,0,0,0,0,0,
0,0,0,0,184,310,845,244,0,0,244,244,244,181,0,0,0,0,0,0,0,0,0,184,245,0,250,310,0,912,0,847,181,0,0,0,0,0,0,
0,0,0,0,250,244,244,0,0,0,244,244,244,245,0,0,0,0,0,0,0,244,244,250,245,0,310,310,912,0,244,244,245,244,0,0,0,0,0,
0,0,0,244,310,0,244,0,0,0,0,244,244,305,181,0,0,0,0,0,184,244,244,310,305,0,250,244,244,0,0,5,305,244,244,181,0,0,0,
0,0,0,4,0,244,0,0,0,0,0,244,244,244,245,244,0,0,0,0,250,845,846,244,244,0,244,244,244,0,5,0,244,244,244,245,0,0,0,
0,0,0,0,0,244,0,0,0,0,0,244,244,244,305,244,244,244,244,244,310,244,244,244,244,3221226384,672,672,0,0,0,244,244,244,244,305,0,0,0,
0,0,0,0,0,244,0,0,0,0,0,0,244,244,244,0,244,244,244,244,244,244,244,190,3221226384,672,672,912,0,244,185,244,0,0,0,1,0,0,0,
0,0,0,0,4,244,846,0,0,0,0,0,0,244,244,244,244,606,244,244,244,244,244,0,672,672,912,0,0,0,245,0,0,1,0,0,0,0,0,
0,0,0,0,0,846,0,0,0,0,244,0,0,0,0,244,244,244,244,244,244,244,244,2147484500,672,912,0,0,0,0,0,0,244,181,0,0,0,0,0,
0,0,0,0,0,244,0,0,244,244,845,846,1,4,244,244,244,244,0,0,0,244,244,10,0,0,3221226264,3221226204,852,244,244,244,244,245,0,0,0,0,0,
0,0,0,0,0,4,0,0,846,1,0,0,0,0,244,244,244,0,0,0,244,244,244,244,244,2147484560,672,672,912,244,1,4,845,305,0,0,0,0,0,
0,0,0,0,0,0,0,0,0,0,0,0,0,0,4,845,846,244,244,244,244,244,1,4,244,847,2147484560,672,244,1,0,0,0,0,0,0,0,0,0,
0,0,0,0,0,0,0,0,0,0,0,0,0,0,0,0,0,4,845,846,1,0,0,0,4,847,244,244,847,181,0,0,0,0,0,0,0,0,0,
0,0,0,0,0,0,0,0,0,0,0,0,0,0,0,0,0,0,0,0,0,0,0,0,0,0,848,244,848,245,0,0,0,0,0,0,0,0,0,
0,0,0,0,0,0,0,0,0,0,0,0,0,0,0,0,0,0,0,0,0,0,0,0,0,0,847,244,0,305,0,0,0,0,0,0,0,0,0,
0,0,0,0,0,0,0,0,0,0,0,0,0,0,0,0,0,0,0,0,0,0,0,0,0,4,0,0,1,0,0,0,0,0,0,0,0,0,0,
0,0,0,0,0,0,0,0,0,0,0,0,0,0,0,0,0,0,0,0,0,0,0,0,0,0,0,0,0,0,0,0,0,0,0,0,0,0,0,
0,0,0,0,0,0,0,0,0,0,0,0,0,0,0,0,0,0,0,0,0,0,0,0,0,0,0,0,0,0,0,0,0,0,0,0,0,0,0
</data>
 </layer>
</map>
